X: 11552
T: Edenderry, The
R: reel
M: 4/4
K: Dmajor
f3e fedB|AF3 EDB,A,|A,3B, DEFG|ABdf edBd|
f3g fedB|AF3 EDB,A,|A,3B, DEFG|ABde fdde:|
fa3 agaf|dfaf edBd|f3f fedB|ABdf edBd|
fa3 agaf|dfaf edBd|f3f fedB|ABdf edde:|

